X:886
T:Paddy Canny's Toast
R:reel
C:Charlie Lennon
Z:id:hn-reel-886
M:C|
L:1/8
K:Gdor
G2cG dGcG | EFcF CFcF | G2cG dGcG | efcA dAcA |
G2cG dGcG | EFcF CFcF | DEFD GABd | cAfA B2AB :| 
|: G2ga gdBA | Ggge fgeg | fB~B2 FBDB | fB~B2 fdcA | 
G2ga gdBA | Ggga bage | ~f3g afge | fdcA B2AB :| 
P:variations
G2cG dGcG | EFcF CFcF | G2cG dGcG | efcA FGAF |
G2cG dGcG | EFcF CFcF | DEFD GABd | cAfA B2AB |
G2cG dGcG | EFcF CFcF | G2cG dGcG | FG (3A=Bc fdcA |
G2cG dGcG | EFcF CFcF | DEFD GABd | cAfA B2AB ||
|: Ggg^f gdBA | G2ge f2eg | fB~B2 FBDB | fB~B2 fdcA | 
Ggg^f gdBA | Ggga bgag | ~f3g a2ge | fdcA BGAF :| 

